packages/calcite-ui-icons/icons/parameters-plus-24.svg

<?xml version="1.0" encoding="UTF-8"?><svg id="icons" xmlns="http://www.w3.org/2000/svg" viewBox="0 0 24 24"><defs><style>.cls-1{fill:none;}</style></defs><rect class="cls-1" width="24" height="24"/><path d="M13,20h-7.5c-2.48145,0-4.5-2.01855-4.5-4.5V6.5c0-2.48145,2.01855-4.5,4.5-4.5h13c2.48145,0,4.5,2.01855,4.5,4.5v9c0,.5285-.10834,1.0285-.27643,1.5h-1.07465c.21851-.45642.35107-.96118.35107-1.5V6.5c0-1.92969-1.57031-3.5-3.5-3.5H5.5c-1.92969,0-3.5,1.57031-3.5,3.5v9c0,1.92969,1.57031,3.5,3.5,3.5h7.5v1ZM19.99994,19v-4h-1v4h-4v.99902h4v4.00098h1v-4.00098h4.00006v-.99902h-4.00006ZM10,17h-1V5h3.45703c1.03711,0,2.01562.45605,2.68262,1.25195.66699.79492.94531,1.8457.76172,2.88184-.28906,1.63379-1.83887,2.86621-3.60449,2.86621h-2.29688v5ZM10,11h2.29688c1.28809,0,2.41406-.87695,2.62012-2.04004.13281-.75586-.05957-1.48926-.54297-2.06543-.47754-.56836-1.17578-.89453-1.91699-.89453h-2.45703v5Z"/></svg>

<svg xmlns="http://www.w3.org/2000/svg" viewBox="0 0 24 24"><path fill="none" d="M0 0h24v24H0z"/><path d="M13 20H5.5A4.505 4.505 0 0 1 1 15.5v-9C1 4.019 3.019 2 5.5 2h13C20.981 2 23 4.019 23 6.5v9c0 .528-.108 1.028-.276 1.5h-1.075A3.46 3.46 0 0 0 22 15.5v-9C22 4.57 20.43 3 18.5 3h-13C3.57 3 2 4.57 2 6.5v9C2 17.43 3.57 19 5.5 19H13v1zm7-1v-4h-1v4h-4v.999h4V24h1v-4.001h4V19h-4zm-10-2H9V5h3.457c1.037 0 2.016.456 2.683 1.252.667.795.945 1.846.761 2.882C15.612 10.768 14.063 12 12.297 12H10v5zm0-6h2.297c1.288 0 2.414-.877 2.62-2.04a2.49 2.49 0 0 0-.543-2.065A2.498 2.498 0 0 0 12.457 6H10v5z"/></svg>
